packages/assets/application-icons/05.Import.svg

<?xml version="1.0" encoding="UTF-8"?>
<svg width="24px" height="24px" viewBox="0 0 24 24" version="1.1" xmlns="http://www.w3.org/2000/svg" xmlns:xlink="http://www.w3.org/1999/xlink">
    <title>05.Import</title>
    <g id="Page-1" stroke="none" stroke-width="1" fill="none" fill-rule="evenodd">
        <g id="Artboard" transform="translate(-201.000000, -101.000000)" fill="#000000" fill-rule="nonzero">
            <g id="05.Import" transform="translate(201.000000, 101.000000)">
                <path d="M5.42045954,15 C5.72392074,15 5.98944929,15.2280702 5.98944929,15.5263158 L5.98944929,15.5263158 L5.98944929,18 L18.0181022,18 L18.0181022,15.5263158 C18.0181022,15.245614 18.2646644,15 18.5870919,15 L18.5870919,15 L20.4490189,15 C20.7524801,15 21.0180087,15.245614 20.9990423,15.5263158 L20.9990423,15.5263158 L20.9990423,20.4736842 C20.9990423,20.754386 20.7524801,21 20.4300526,21 L20.4300526,21 L3.56898975,21 C3.26552855,21 3,20.7719298 3,20.4736842 L3,20.4736842 L3,15.5263158 C3,15.245614 3.24656222,15 3.56898975,15 L3.56898975,15 Z M13.3060923,3 C13.628537,3 13.8751124,3.26554268 13.8751124,3.56902002 L13.8751124,3.56902002 L13.8751124,9.3540569 L16.6822778,9.3540569 C17.1564611,9.3540569 17.4030365,9.92307692 17.0995591,10.2834563 L17.0995591,10.2834563 L12.547399,15.5943098 C12.319791,15.8598525 11.9214769,15.8598525 11.6938689,15.5943098 L11.6938689,15.5943098 L7.14170877,10.2834563 C6.81926409,9.92307692 7.08480677,9.3540569 7.55899012,9.3540569 L7.55899012,9.3540569 L10.3471882,9.3540569 L10.3471882,3.56902002 C10.3471882,3.24657534 10.6127309,3 10.9162082,3 L10.9162082,3 Z" id="Import"></path>
            </g>
        </g>
    </g>
</svg>

<svg width="24" height="24" viewBox="0 0 24 24" xmlns="http://www.w3.org/2000/svg"><path d="M5.42 15c.304 0 .57.228.57.526V18h12.028v-2.474c0-.28.247-.526.57-.526h1.861c.303 0 .569.246.55.526v4.948c0 .28-.247.526-.569.526H3.57C3.266 21 3 20.772 3 20.474v-4.948c0-.28.247-.526.569-.526Zm7.886-12a.57.57 0 0 1 .57.569v5.785h2.806c.474 0 .721.57.418.93l-4.553 5.31a.557.557 0 0 1-.853 0l-4.552-5.31c-.323-.36-.057-.93.417-.93h2.788V3.57a.57.57 0 0 1 .57-.569Z" fill="#000" fill-rule="nonzero"/></svg>
